X: 926
T: Hawk's hornpipe
C: anon.
O: Ireland
B: Francis O'Neill: "The Dance Music of Ireland" (1907) no. 926
R: Hornpipe
Z: Transcribed by Frank Nordberg - http://www.musicaviva.com
F: http://www.musicaviva.com/abc/tunes/ireland/oneill-1001/oneill-1001-092
6.abc
M: C|
L: 1/8
K: Ador
(ed)|c2EF G2EF|GFGA GAcd|egec AdcA|GFEF G2(FG)|AGAB cBcA|dcde g2(fg)|
(3(agf) ge fdec|[1A2(3AAA AGAB:|[2A2(3AAA Acef|:gfga gfed|cdef gfed|eaab
c'bag|
e2a2a2ef|(3(gfe) af (3(gfe) dB|cdef g2(fg)|(3(agf) ge fdec|[1A2(3AAA Acef
:|[2A2(3AAA A2|]
W:
W:
W: From Musica Viva - http://www.musicaviva.com
W: the Internet center for free sheet music downloads.


